assets/svg/location-black.svg

<svg height="19" viewBox="0 0 14 19" width="14" xmlns="http://www.w3.org/2000/svg"><path d="m961 329c-3.866723 0-7 3.15088-7 7.041073 0 6.724225 7 11.958927 7 11.958927s7-5.234702 7-11.958927c0-3.890193-3.133277-7.041073-7-7.041073zm0 10.455993c-1.830679 0-3.309304-1.49036-3.309304-3.326907 0-1.836546 1.484493-3.332774 3.309304-3.332774 1.830679 0 3.309304 1.49036 3.309304 3.332774 0 1.836547-1.478625 3.326907-3.309304 3.326907z" fill="#111" transform="translate(-954 -329)"/></svg>

<?xml version="1.0" encoding="UTF-8"?>
<svg width="14px" height="19px" viewBox="0 0 14 19" version="1.1" xmlns="http://www.w3.org/2000/svg" xmlns:xlink="http://www.w3.org/1999/xlink">
    <!-- Generator: Sketch 48.2 (47327) - http://www.bohemiancoding.com/sketch -->
    <title>Shape</title>
    <desc>Created with Sketch.</desc>
    <defs></defs>
    <g id="Modal-Account" stroke="none" stroke-width="1" fill="none" fill-rule="evenodd" transform="translate(-954.000000, -329.000000)">
        <path d="M961,329 C957.133277,329 954,332.15088 954,336.041073 C954,342.765298 961,348 961,348 C961,348 968,342.765298 968,336.041073 C968,332.15088 964.866723,329 961,329 Z M961,339.455993 C959.169321,339.455993 957.690696,337.965633 957.690696,336.129086 C957.690696,334.29254 959.175189,332.796312 961,332.796312 C962.830679,332.796312 964.309304,334.286672 964.309304,336.129086 C964.309304,337.965633 962.830679,339.455993 961,339.455993 Z" id="Shape" fill="#111111" fill-rule="nonzero"></path>
    </g>
</svg>
